assets/icons/home-filled.svg

<?xml version="1.0" encoding="UTF-8" standalone="no"?>
<svg viewBox="0 0 24 24" height="24" width="24" version="1.1" id="svg12" sodipodi:docname="home-filled.svg" inkscape:version="1.1 (ce6663b3b7, 2021-05-25)"
   xmlns:inkscape="http://www.inkscape.org/namespaces/inkscape"
   xmlns:sodipodi="http://sodipodi.sourceforge.net/DTD/sodipodi-0.dtd"
   xmlns="http://www.w3.org/2000/svg"
   xmlns:svg="http://www.w3.org/2000/svg">
   <defs id="defs16" />
   <sodipodi:namedview id="namedview14" pagecolor="#ffffff" bordercolor="#666666" borderopacity="1.0" inkscape:pageshadow="2" inkscape:pageopacity="0.0" inkscape:pagecheckerboard="0" showgrid="true" inkscape:zoom="28" inkscape:cx="15.160714" inkscape:cy="13.160714" inkscape:window-width="1920" inkscape:window-height="1016" inkscape:window-x="0" inkscape:window-y="27" inkscape:window-maximized="1" inkscape:current-layer="svg12" inkscape:snap-page="true">
      <inkscape:grid type="xygrid" id="grid97" />
   </sodipodi:namedview>
   <path id="rect1184" style="fill:#808080;fill-opacity:1;fill-rule:evenodd;stroke:none;stroke-width:2;stroke-linecap:square;stroke-linejoin:round" d="M 12 2.2929688 L 2.1464844 12.146484 L 2.8535156 12.853516 L 5 10.707031 L 5 21 L 12 21 L 12 13 L 14 13 C 15.108 13 16 13.892 16 15 L 16 21 L 19 21 L 19 10.707031 L 21.146484 12.853516 L 21.853516 12.146484 L 12 2.2929688 z " />
   <path id="rect30" style="fill:#808080;fill-rule:evenodd;stroke-width:2;stroke-linecap:square;stroke-linejoin:round" d="m 17.121094,6.0000002 1.878906,1.8789062 v -1.8789062 z" sodipodi:nodetypes="cccc" />
</svg>

<svg height="24" width="24" xmlns="http://www.w3.org/2000/svg"><path style="fill:gray;fill-opacity:1;stroke:none;stroke-width:2;stroke-linecap:square;stroke-linejoin:round" d="m12 2.293-9.854 9.853.708.708L5 10.707V21h7v-8h2c1.108 0 2 .892 2 2v6h3V10.707l2.146 2.147.708-.708L12 2.293z"/><path style="fill:gray;stroke-width:2;stroke-linecap:square;stroke-linejoin:round" d="M17.121 6 19 7.879V6z"/></svg>
